!!!COM: Anon.
!!!OTL: Butterfly's War Song
!!!ODT: <1918//
!!!MPN: Apaugus [White Clay Nose, Butterfly]
!!!MLC: Fort Berthold Reservation, North Dakota, United States of America
!! Song was recorded during either the summer of 1912, 1915, or 1918.
!!!AGN: monody
!!!AST: Mandan and Hidatsa War Songs
!!!AMT: irregular
!!!RWG: Transcribed pitches, durations, and meters are only approximate.
!! Drum Tempo: MM50
!! Drum-rhythm: (8 8) (8 8) (8 8) (8 8)
**kern
*ICvox
*Imale
*clefF4
*k[f#c#g#d#a#]
*M3/4
*MM50
16g#
=1
8.g#
16f#
8.f#
16f#
8.d#
16g#
=2
16g#
8.f#
16d#
[8.d#
8.d#]
16f#
*M2/4
=3
4.f#
8d#
=4
4d#
(12c#
12.B
24c#)
*M3/4
=5
(12c#
12B
12B)
(12G#
12.G#
24F#)
8.D#
16G#
=6
(12G#
12F#
12F#)
8D#
[8D#
8D#]
8D#
=7
2.D#
=8
2.D#
==
*-
!!!CNT: Hidatsa
!!!TXO: Hidatsa
!!!OCY: United States
!!!OCL: Frances Densmore
!!!YOR: Frances Densmore, "Mandan and Hidatsa Music",
!!!YOR: Bulletin 80, page 156, No. 88
!!!PPR: Smithsonian Institution, Bureau of American Ethnology
!!!PPR: Government Printing Office
!!!PDT: 1923
!!!PPP: Washington, DC, United States of America
!!!YEC: Electronic Copyright 2000 David Huron
!!!YER: August 2000
!!!YEN: United States of America
!!!ENC: David Huron
!!!RDT: August 18, 2000
!!!EEV: Release 1.0
!!!AIN: tom, vox
